docs/assets/packages/flag/res/1x1/kr.svg

<svg xmlns="http://www.w3.org/2000/svg" xmlns:xlink="http://www.w3.org/1999/xlink" width="512px" height="512px" viewBox="0 0 512 512" version="1.1">
  <g id="surface1">
    <rect x="0" y="0" width="512" height="512" style="fill:rgb(100%,100%,100%);fill-opacity:1;stroke:none;" />
    <g transform="translate(-60 20)">
      <path style=" stroke:none;fill-rule:nonzero;fill:rgb(0%,0%,0%);fill-opacity:1;" d="M 98.121094 145.699219 L 157.289062 45.855469 L 172.078125 56.949219 L 112.910156 156.796875 Z M 120.308594 162.34375 L 179.476562 62.496094 L 194.269531 73.589844 L 135.101562 173.4375 Z M 142.496094 178.984375 L 201.651262 79.136719 L 216.457031 90.230469 L 157.289062 190.078125 Z M 142.496094 178.984375 " />
      <path style=" stroke:none;fill-rule:nonzero;fill:rgb(0%,0%,0%);fill-opacity:1;" d="M 423.542969 389.769531 L 482.710938 289.921875 L 497.503906 301.015625 L 438.335938 400.863281 Z M 445.730469 406.410156 L 504.898438 306.5625 L 519.691406 317.65625 L 460.523438 417.503906 Z M 467.921875 423.050781 L 527.089844 323.203125 L 541.878906 334.300781 L 482.710938 434.144531 Z M 467.921875 423.050781 " />
      <path style="fill-rule:nonzero;fill:rgb(0%,0%,0%);fill-opacity:1;stroke-width:1;stroke-linecap:butt;stroke-linejoin:miter;stroke:rgb(100%,100%,100%);stroke-opacity:1;stroke-miterlimit:4;" d="M -0.000243772 16.999949 L -0.0000812672 26.999964 " transform="matrix(4.930668,-8.320503,7.396003,5.547002,320,240)" />
      <path style=" stroke:none;fill-rule:nonzero;fill:rgb(80.392157%,18.039216%,22.745098%);fill-opacity:1;" d="M 231.246094 173.4375 C 263.925781 118.292969 330.152344 103.390625 379.167969 140.152344 C 428.183594 176.917969 441.429688 251.421875 408.753906 306.5625 Z M 231.246094 173.4375 " />
      <path style=" stroke:none;fill-rule:nonzero;fill:rgb(0%,27.843137%,62.745098%);fill-opacity:1;" d="M 231.246094 173.4375 C 198.570312 228.578125 211.815126 303.082031 260.832031 339.847656 C 309.847656 376.609375 376.074219 361.707031 408.753906 306.5625 C 425.089844 278.992188 418.46875 241.738281 393.960938 223.359375 C 369.453125 204.976562 336.339844 212.429688 320 240 Z M 231.246094 173.4375 " />
      <path style=" stroke:none;fill-rule:nonzero;fill:rgb(80.392157%,18.039216%,22.745098%);fill-opacity:1;" d="M 305.207031 156.796875 C 329.714844 175.175781 336.339844 212.429688 320 240 C 303.660156 267.570312 270.546875 275.023438 246.039062 256.512625 C 221.53125 238.261719 214.910156 201.007812 231.246094 173.4375 C 247.585938 145.863281 280.699219 138.414062 305.207031 156.796875 Z M 305.207031 156.796875 " />
      <path style=" stroke:none;fill-rule:nonzero;fill:rgb(0%,0%,0%);fill-opacity:1;" d="M 157.289062 434.144531 L 98.121094 334.300781 L 112.910156 323.203125 L 172.078125 423.050781 Z M 179.476562 417.503906 L 120.308594 317.65625 L 135.101562 306.5625 L 194.269531 406.410156 Z M 201.651262 400.863281 L 142.496094 301.015625 L 157.289062 289.921875 L 216.457031 389.769531 Z M 201.651262 400.863281 " />
      <path style=" stroke:none;fill-rule:nonzero;fill:rgb(0%,0%,0%);fill-opacity:1;" d="M 482.710938 190.078125 L 423.542969 90.230469 L 438.335938 79.136719 L 497.503906 178.984375 Z M 504.898438 173.4375 L 445.730469 73.589844 L 460.523438 62.496094 L 519.691406 162.34375 Z M 527.089844 156.796875 L 467.921875 56.949219 L 482.710938 45.855469 L 541.878906 145.699219 Z M 527.089844 156.796875 " />
      <path style="fill-rule:nonzero;fill:rgb(0%,0%,0%);fill-opacity:1;stroke-width:1;stroke-linecap:butt;stroke-linejoin:miter;stroke:rgb(100%,100%,100%);stroke-opacity:1;stroke-miterlimit:4;" d="M -0.00016252 -23.499923 L -0.000162519 -20.499991 M 0.000243772 16.999949 L 0.000162519 20.499991 M 0.00016252 23.499923 L 0.000162522 26.499854 " transform="matrix(-4.930668,-8.320503,7.396003,-5.547002,320,240)" />
    </g>
  </g>
</svg>

<svg xmlns="http://www.w3.org/2000/svg" width="512" height="512"><path d="M0 0h512v512H0z" style="fill:#fff;fill-opacity:1;stroke:none"/><path d="m98.121 145.7 59.168-99.845 14.79 11.094-59.169 99.848Zm22.188 16.644 59.168-99.848L194.27 73.59l-59.168 99.848Zm22.187 16.64 59.155-99.847 14.806 11.093-59.168 99.848ZM423.543 389.77l59.168-99.848 14.793 11.094-59.168 99.847Zm22.187 16.64 59.168-99.848 14.793 11.094-59.168 99.848Zm22.192 16.64 59.168-99.847 14.789 11.098-59.168 99.844Zm0 0" style="stroke:none;fill-rule:nonzero;fill:#000;fill-opacity:1" transform="translate(-60 20)"/><path d="M0 17v10" style="fill-rule:nonzero;fill:#000;fill-opacity:1;stroke-width:1;stroke-linecap:butt;stroke-linejoin:miter;stroke:#fff;stroke-opacity:1;stroke-miterlimit:4" transform="matrix(4.93067 -8.3205 7.396 5.547 260 260)"/><path d="M231.246 173.438c32.68-55.145 98.906-70.047 147.922-33.286 49.016 36.766 62.262 111.27 29.586 166.41Zm0 0" style="stroke:none;fill-rule:nonzero;fill:#cd2e3a;fill-opacity:1" transform="translate(-60 20)"/><path d="M231.246 173.438c-32.676 55.14-19.43 129.644 29.586 166.41 49.016 36.761 115.242 21.859 147.922-33.286 16.336-27.57 9.715-64.824-14.793-83.203C369.453 204.977 336.34 212.43 320 240Zm0 0" style="stroke:none;fill-rule:nonzero;fill:#0047a0;fill-opacity:1" transform="translate(-60 20)"/><path d="M305.207 156.797C329.715 175.176 336.34 212.43 320 240s-49.453 35.023-73.96 16.513c-24.509-18.251-31.13-55.505-14.794-83.075 16.34-27.575 49.453-35.024 73.961-16.641m0 0" style="stroke:none;fill-rule:nonzero;fill:#cd2e3a;fill-opacity:1" transform="translate(-60 20)"/><path d="M157.29 434.145 98.12 334.3l14.79-11.098 59.167 99.848Zm22.187-16.641-59.168-99.848 14.793-11.094 59.168 99.848Zm22.174-16.64-59.155-99.848 14.793-11.094 59.168 99.848ZM482.71 190.078 423.544 90.23l14.793-11.093 59.168 99.847Zm22.188-16.64L445.73 73.59l14.793-11.094 59.168 99.848Zm22.192-16.641-59.168-99.848 14.789-11.094 59.168 99.844Zm0 0" style="stroke:none;fill-rule:nonzero;fill:#000;fill-opacity:1" transform="translate(-60 20)"/><path d="M0-23.5v3M0 17v3.5m0 3v3" style="fill-rule:nonzero;fill:#000;fill-opacity:1;stroke-width:1;stroke-linecap:butt;stroke-linejoin:miter;stroke:#fff;stroke-opacity:1;stroke-miterlimit:4" transform="matrix(-4.93067 -8.3205 7.396 -5.547 260 260)"/></svg>
